X:803
T:Plough and the Stars, The
R:reel
Z:id:hn-reel-803
M:C|
L:1/8
K:G
GEDE GABd|g2bg aged|Bd~d2 ed~d2|gedB A2BA|
GEDE GABd|g2bg aged|Bd~d2 edBG|1 AGAB G2BA:|2 AGAB G2 (3def||
|:g3b a2ba|gabg aged|Bd~d2 ed~d2|gedB A2BA|
GEDE GABd|g2bg aged|Bd~d2 edBG|1 AGAB G2 (3def:|2 AGAB G2 BA||
